X:1
T:Te Deum in B flat - Purcell
T:#
%%score { ( 1 3 ) | 2 } ( 4 5 ) ( 6 7 ) 8
L:1/8
Q:1/4=180
M:none
K:Bb
V:1 treble nm="Soprano" snm="S"
V:3 treble 
V:2 treble 
V:4 treble nm="Alto" snm="A"
V:5 treble 
V:6 treble-8 nm="Tenor" snm="T"
V:7 treble-8 
V:8 bass nm="Bass" snm="B"
V:1
"^Te Deum laudamus, Z 230/1""^Henry Purcell\n(1659-95)" B4 d8 c4 | B8 A8 | A2 A2 B8 A4- | %3
w: We praise Thee,|O God,|we ac- know- ledge|
 G2 F2 F8 =E4 | F8 z4 B4- | B2 B2 G2 E2 C2 G2 c4- | c2 A2 F2 F2 B6 B2 | G2 G2 c6 B2 (B4- | %8
w: Thee to be the|Lord. All|* the earth doth wor- ship Thee,|* the Fa- ther e- ver-|last- ing, e- ver- last\-|
 B4 A4) B8 | z16 | z16 | z16 | z16 | z16 | z4"^Solo" B4 B4 B2 B2 | A4 G4 c4 B4 | A4 B4 B2 B2 A4 | %17
w: * * ing.||||||To Thee Che- ru-|bim and Se- ra-|phim con- ti- nu- al-|
 G6 F2 F4"^Full" c4- | c4 c4 z4 d4- | d4 d4 z4 e4- | e4 e2 f2 A4 B4 | (B4 A3) B B4"^Dec." B4- | %22
w: ly do cry: Ho\-|* ly, ho\-|* ly, ho\-|* ly, Lord God of|Sa\- * ba- oth. Heav'n|
 B2 B2 G2 G2 F4 G2 G2 | A2 A2 B4 c8- | c12 c4 | (c4 B3 A) A4"^Can." A4 | =B2 B2 ^c4 d6 =e2 | %27
w: * and earth are full of the|ma- jes- ty of|* Thy|glo\- * * ry. The|glo- ri- ous com- pa-|
 ^c6 c2 d4 =c4 | =B2 A2 (A8 ^G4) | A4"^Dec." A4 =B4 ^c4 | d6 =e2 ^c4 =c2 c2 | c4 B4 A8 | %32
w: ny of the A-|pos- tles praise *|Thee. The good- ly|fel- low- ship of the|Pro- phets praise|
 G4"^Can." B4 B4 G4 | c4 d2 e2 d4 B4 | (B4 _A3 G) G4"^Full" G4 | G4 c4 =B4 B4 | %36
w: Thee. The no- ble|ar- my of Mar- tyrs|praise * * Thee. The|ho- ly Church through-|
 c4 _B2 B2 A4 B2 B2 | B4 A4 B8 | z16 | z16 | z16 | z16 | z16 | z4"^Solo" d4 d4 c4 | c4 B4 A4 B4 | %45
w: out all the world doth ac-|know- ledge Thee.||||||Al- so the|Ho- ly Ghost, the|
 A6 G2 G4 z4 | z4"^Full" G4 B4 E4 | G6 F2 E2 C2 (c4- | c4 ^F4) F8 | z4 A4 A4 A4 | A4 A4 A4 G4 | %51
w: Com- for- ter.|Thou art the|King of glo- ry, O|* * Christ.|Thou art the|e- ver- last- ing|
 G4 F2 =E2 (E6 D2) | D8 z4"^Solo" F4- | F4 F4 F4 B4 | A4 d4 c4 f4 | e4 d4 c4 z4 | z4 d4 B4 c2 e2 | %57
w: Son of the Fa\- *|ther. When|* Thou took'st up-|on Thee to de-|li- ver man,|Thou didst not ab-|
 A4 B4 B4 A4 | B4 z4 z8 | z16 | z16 | z16 | z16 | z16 | z16 | z16 | z16 | z16 | %68
w: hor the Vir- gin's|womb.||||||||||
 z2"^Full" F2 B6 B2 c2 d2 | e4 d2 c2 d4 d2 d2 | d4 e4 =B4 c4- | c4 =B4 c4 z4 | z16 | %73
w: Thou sit- test at the|right hand of God, in the|glo- ry of the|* Fa- ther.||
 z4 c6 c2 =B2 d2 | G2 A2 _B8 (B3 A) | (B2 A4) G2 G8 | z16 | z4 B4 B4 A4 | c4 B4 A4 (G2 F2) | %79
w: We be- lieve that|Thou shalt come to *|be * our Judge.||We there- fore|pray Thee, help Thy *|
 =E2 E2 A6 A2 G2 F2 | B6 B2 A2 G2 (c4- | c4 B8) A4 | B8 || z4"^Solo" F4- | F2 F2 ^F2 F2 G4 A4 | %85
w: ser- vants, whom Thou hast re-|deem- ed with Thy pre\-|* * cious|blood.|Make|* them to be num- ber'd|
 B4 (B3 A) A2 A2 d4- | d2 B2 G3 A- (^F4 G4- | G4 ^F4) G8 | z16 | z16 | z16 | z16 | z16 | z16 | %94
w: with Thy * Saints in glo\-|* ry e- ver- last\- *|* * ing.|||||||
 z4"^Full" A6 d2 ^c4- | c2 A2 d6 =e2 ^c4 | d4 B2 B2 G2 G2 E4 | C4 c6 A2 d4- | %98
w: Day by day|* we mag- ni- fy|Thee, and we wor- ship Thy|Name e- ver world|
 d2 d2 (c2 B2) A2 A2 (B4- | B4 A4) B8 | z16 | z8 A8 | =B4 (c8 B4) | c6 _B2 A4 G4 | A8 =B6 B2 | %105
w: * with- out * end, with- out|* * end.||Vouch-|safe, O *|Lord, to keep us|his day with-|
 (^c4 d8 c4) | d8 z8 | z16 |"^Can." A8 =B4 c4 | c4 =B4 (c6 _B2 | A4) G4 A6 A2 | =B6 B2 (^c4 d4- | %112
w: out * *|sin.||O Lord, have|mer- cy u\- *|* pon us, have|mer- cy u\- *|
 d4 ^c4 d8 | z4"^Solo" B8 B4 | e4 c4 d2 d2 A4- | A2 A2 B4 A8 | G4 z4 z8 | z4 G2 G2 A2 F2 B4 | %118
w: * pon us.|O Lord,|let Thy mer- cy light\-|* en u- pon|us,|as our trust is in|
 G2 c2 A4 B6 B2 | F4 B4 B4 A4) | B8"^Full" F8 | _A4 A4 G4 =A2 B2 | (E4- E3 D) D4 z4 | z8 z4 B4- | %124
w: Thee, is in Thee, our|trust is in *|Thee. O|Lord, in Thee have I|trust\- * * ed:|let|
 B2 d2 c2 B2 A2 F2 G2 A2 | B2 B2[Q:1/4=176] B6[Q:1/4=171] G2[Q:1/4=169] A2[Q:1/4=167] B2 | %126
w: * me ne- ver, ne- ver be con-|found- ed, let me ne- ver,|
[Q:1/4=165] c2[Q:1/4=163] e2[Q:1/4=161] d2[Q:1/4=159] (c[Q:1/4=158]B)[Q:1/4=155] (B4[Q:1/4=151] A4) | %127
w: ne- ver be con\- * found\- *|
[Q:1/4=150] !fermata!B16 |] %128
w: ed.|
V:2
 x16 | x16 | x16 | x16 | x16 | x16 | x16 | x16 | x16 | x16 | x16 | x16 | x16 | z16 | %14
w: ||||||||||||||
 z4"^Solo" G4 G4 F2 F2 | E4 D4 (=E2 ^F2) G4 | ^F4 =F4 G2 C2 F4 | x16 | x16 | x16 | x16 | x16 | %22
w: To Thee Che- ru-|bim and Se\- * ra|phim con- ti- nu- al-||||||
 x16 | x16 | x16 | x16 | x16 | x16 | x16 | x16 | x16 | x16 | x16 | x16 | x16 | x16 | x16 | x16 | %38
w: ||||||||||||||||
 x16 | x16 | x16 | x16 | x16 | x16 | x16 | x16 | x16 | x16 | x16 | z16 | z16 | z16 | %52
w: ||||||||||||||
 z8 z4"^Solo" D4- | D4 D4 D4 D4 | E4 F4 G4 A4 | B6 c2 A4 c4 | A4 B2 d2 G2 E2 (e4- | e4 d4) c8 | %58
w: When|* Thou took'st up-|on Thee to de-|li- ver man, Thou|didst not ab- hor the Vir\-|* * gin's|
 d4 z4 z8 | x16 | x16 | x16 | x16 | x16 | x16 | x16 | x16 | x16 | x16 | x16 | x16 | x16 | x16 | %73
w: womb.|||||||||||||||
 x16 | x16 | x16 | x16 | x16 | x16 | x16 | x16 | x16 | x8 || z4 D4- | D2 D2 C2 C2 D4 =E4 | %85
w: ||||||||||Make|* them to be num- ber'd|
 ^F4 G4 !courtesy!^F4 z4 | z2 G2 e6 d2 B3 A | A8 G8 | x16 | x16 | x16 | x16 | x16 | x16 | x16 | %95
w: with Thy Saints|in glo- ry e- ver-|last- ing.||||||||
 x16 | x16 | x16 | x16 | x16 | x16 | x16 | x16 | x16 | x16 | x16 | x16 | x16 | x16 | x16 | x16 | %111
w: ||||||||||||||||
 x16 | z16 | z4"^Solo" G8 F4 | G4 A4 B2 B2 ^F4- | F2 ^F2 G8 F4 | G4 D2 D2 =E2 C2 F4 | %117
w: ||O Lord,|let Thy mer- cy light\-|* en u- pon|us, as our trust is in|
 D2 G2 =E4 F8 | z4 c2 c2 d2 B2 e4 | c2 f2 d2 c2 c8 | d8"^Full" F8 | x16 | x16 | x16 | x16 | x16 | %126
w: Thee, is in Thee,|as our trust is in|Thee, our trust is in|Thee. O||||||
 x16 | x16 |] %128
w: ||
V:3
 x16 | x16 | x16 | x16 | x16 | x16 | x16 | x16 | x16 | x16 | x16 | x16 | x16 | x16 | x16 | x16 | %16
 x16 | F4 =E4 F4 x4 | x16 | x16 | x16 | x16 | x16 | x16 | x16 | x16 | x16 | x16 | x16 | x16 | x16 | %31
 x16 | x16 | x16 | x16 | x16 | x16 | x16 | x16 | x16 | x16 | x16 | x16 | x4 B4 B4 A4 | %44
 A4 G4 ^F4 G4 | G4 ^F4 G4 x4 | x16 | x16 | x16 | x16 | x16 | x16 | x16 | x16 | x16 | x16 | x16 | %57
 x16 | x16 | x16 | x16 | x16 | x16 | x16 | x16 | x16 | x16 | x16 | x16 | x16 | x16 | x16 | x16 | %73
 x16 | x16 | x16 | x16 | x16 | x16 | x16 | x16 | x16 | x8 || x8 | x16 | x16 | x16 | x16 | x16 | %89
 x16 | x16 | x16 | x16 | x16 | x16 | x16 | x16 | x16 | x16 | x16 | x16 | x16 | x16 | x16 | x16 | %105
 x16 | x16 | x16 | x16 | x16 | x16 | x16 | x16 | x16 | x16 | x16 | x16 | x16 | x16 | x16 | x16 | %121
 x16 | x16 | x16 | x16 | x16 | x16 | x16 |] %128
V:4
 D4 F8 F4 | (F4 =E4) F8 | F2 F2 G8 (F2 _E2) | D6 E2 C6 C2 | C4 F6 F2 D2 B,2 | G,2 D2 E6 E2 C2 C2 | %6
w: We praise Thee|O * God,|we ac- know- ledge *|Thee to be the|Lord. All the earth doth|wor- ship Thee, the Fa- ther|
 F6 D2 D6 B,2 | E12 D4 | C8 D8 | z4"^Solo" D4 C4 F4 | F4 D4 E4 F4 | G12 E4 | _A6 G2 F8- | x16 | %14
w: e- ver- last- ing,|e- ver-|last- ing.|To Thee all|an- gels cry a-|loud, the|heav'ns and all||
 x16 | x16 | x4 D4 =E2 E2 F4 | C6 C2 F,4"^Full" F4- | F4 F4 z4 F4- | F4 F4 z4 G4- | %20
w: |||ly do cry: Ho\-|* ly, ho\-|* ly, ho-|
 G4 G2 G2 F4 =E4 | (F4 _E3) D D8 |"^Dec." E6 E2 D2 D2 B,4 | C2 C2 D2 D2 E4 D2 G2 | %24
w: * ly, Lord God of|Sa\- * ba- oth.|Heav'n and earth are full|of the ma- jes- ty of Thy|
 =E2 C2 (F4 G2) F2 (F4- | F4 =E4) F4"^Can." C4 | D2 D2 =E4 F6 G2 | =E6 E2 D4 !courtesy!=E4 | %28
w: glo- ry, of * Thy glo\-|* * ry. The|glo- ri- ous com- pa-|ny of the A-|
 F4 =E4 (E6 D2) | ^C4"^Dec." =C4 D4 =E4 | F6 G2 =E4 E2 E2 | D4 D4 (D6 C2) | =B,4"^Can." D4 D4 E4 | %33
w: pos- tles praise *|Thee. The good- ly|fel- low- ship of the|Pro- phets praise *|Thee. The no- ble|
 E2 E2 _A4 A4 G4 | F8 E4"^Full" E4 | E4 G4 G4 G4 | G4 F2 F2 F4 F2 F2 | (F2 E4) D2 D8 | %38
w: ar- my of Mar- tyrs|praise Thee. The|ho- ly Church through-|out all the world doth ac-|know\- * ledge Thee,|
 z4"^Solo" F4 F4 F4 | F4 F4 F2 F2 (F2 G2) | C6 D2 D4 F4 | F4 F4 F4 F4 | F6 G2 C6 D2 | D4 z4 z8 | %44
w: the Fa- ther|of an in- fi- nite *|ma- jes- ty, Thine|ho- nour- a- ble|true, and on- ly|Son.|
 z16 | z16 | z4"^Full" E4 D4 C4 | (B,2 C2) D4 C3 D E4 | D16 | z4 F4 F4 F4 | =E4 F4 D4 E4 | %51
w: ||Thou art the|King * of glo- ry, O|Christ.|Thou~ art the|e- ver- last- ing|
 ^C4 D2 D2 (D4 C4) | D8 z4"^Solo" B,4- | B,4 A,4 B,4 G,4 | C4 B,4 E4 D4 | G4 E4 F4 z4 | %56
w: Son of~ the Fa\- *|ther. When|* Thou~ took'st~ up-|on Thee~ to de-|li- ver man,|
 F4 D4 E2 G2 C2 C2 | F12 F,4 | B,4 D4 D4 C4 | (F4 =E2) F2 E4 E4 | ^G,4 C4 =B,8 | %61
w: Thou didst not ab- hor the|Vir\-- gin's|womb. When Thou hadst|o\- * ver- come the|sharp- ness of|
 A,4 ^C2 C2 D2 D2 D4 | x12 G2 ^F2 | =E2 C2 x12 | x16 | (F4 =E3 F) F4 z4 | z16 | %67
w: death, Thou didst o- pen the||||lie\- * * vers.||
 z2"^Full" B,2 F6 F2 F2 G2 | _A4- G2 F2 G4 G2 G2 | F12 F4 | F12 (G2 A2) | G8 G4 G4- | %72
w: Thou sit- test at the|right hand of God, in the|glo- ry|of the *|Fa- ther. We|
 G2 G2 E2 G2 C2 D2 E4- | E2 D2 F4 E4 D4- | D2 =E2 ^F2 D2 E2 F2 G4- | G4 ^F4 G4 D4 | E4 D4 F4 E4 | %77
w: * be- lieve that Thou shalt come,|* that Thou shalt come|* to be our Judge, to be|* our Judge. We|there- fore pray Thee,|
 D16- | D12 D4 | (D4 ^C4) D4 D4- | D2 D2 C2 B,2 E6 E2 | D2 C2 (D4 C6) (DE) | D8 || z4"^Solo" B,4- | %84
w: help|* Thy|ser\- * vants, whom|* Thou hast re- deem- ed|with Thy pre\- * cious *|blood.|Make|
 B,2 B,2 A,2 A,2 =B,4 C4 | D4 [G,G,]4 D4 z2 _B,2 | E6 C2 A,4 (B,2 C2) | D8 G,8 | %88
w: * them to be num- ber'd|with Thy Saints in|glo- ry e- ver\- *|last- ing.|
"^Solo" D8 D4 D2 D2 | D4 D2 D2 E4 (E2 D2) | D6 C2 C4 C4- | C2 A,2 F,2 G,2 A,2 B,2 C4- | %92
w: O Lord, save Thy|peo- ple and bless Thine *|he- ri- tage. Go\-|* vern them, and lift them up|
 C2 D2 =E2 F2 G8- | G2 F2 (F8 =E4) | F4"^Full" C6 F2 =E2 E2 | A6 F2 G8 | ^F4 z4 E2 E2 C2 C2 | %97
w: * and lift them up|* for e\- *|ver. Day by day we|mag- ni- fy|Thee, and we wor- ship|
 A,4 F,4 z4 F4- | F2 D2 G4 F8- | F4 (E3 D) D8 |"^Dec." D8 =E4 (F4- | F4 =E4) F6 _E2 | D4 C4 D8 | %103
w: Thy Name e\-|* ver world with\-|* out * end.|Vouch- safe, O|* * Lord, to|keep us this|
 =E6 E2 (^F4 G4- | G4 ^F4) G3 =F =E4- | E4 D4 (^C3 =B, A,4) | A,8"^Can." D8 | =E4 F4 F4 E4 | %108
w: day with- out *|* * sin, this day|* with- out * *|sin. O|Lord, have mer- cy|
 (F6 E2 D4) C4 | D6 D2 =E6 E2 | (^F4 G8 F4) | G3 =F =E8 D4 | x16 | x16 | x16 | x8 D8 | x16 | %117
w: u\- * * pon|us, have mer- cy|u\- * *|pon~us, have mer- cy||||||
 B,2 G,2 C4 F,4 D2 D2 | E2 C2 F4 B,4 G,2 G,2 | A,4 B,4 F,8 | B,8"^Full" D8 | D4 D4 (E3 D) C2 B,2 | %122
w: trust is in Thee, as our|trust is in Thee, as our|trust is in|Thee. O|Lord, in Thee * have I|
 (B,4 A,4) B,4 z4 | z16 | z4 C6 A,2 B,2 C2 | D2 F2 E2 D2 C6 B,2 | A,2 A,2 B,2 F2 F8 | %127
w: trust\- * ed:||let me ne- ver,|ne- ver be con- found- ed,|ne- ver be con- found-|
 !fermata!F16 |] %128
w: ed.|
V:5
 x16 | x16 | x16 | x16 | x16 | x16 | x16 | x16 | x16 | x16 | x16 | x16 | x16 | F2 E2 E8 D4 | %14
w: |||||||||||||* the Pow'~rs there-|
 E4"^Solo" E4 E4 D2 D2 | C4 B,4 A,4 G,4 | D4 D,4 =E,2 E,2 F,4 | x16 | x16 | x16 | x16 | x16 | x16 | %23
w: in: To Thee Che- ru-|bim and Se- ra-|phim, con- ti- nu- al-|||||||
 x16 | x16 | x16 | x16 | x16 | x16 | x16 | x16 | x16 | x16 | x16 | x16 | x16 | x16 | x16 | x16 | %39
w: ||||||||||||||||
 x16 | x16 | x16 | x16 | x16 | x16 | x16 | x16 | x16 | x16 | x16 | x16 | x16 | x16 | x16 | x16 | %55
w: ||||||||||||||||
 x16 | x16 | x16 | x16 | x16 | x16 | x16 | =E2 E2 ^F4 G4 G,2 ^F,2 | =E,2 C,2 C4 A,2 F,2 F4 | %64
w: |||||||king- dom of heav'n, Thou didst|o- pen the king- dom of|
 G6 A,2 (B,2 A,2 G,2) F,2 | x16 | x16 | x16 | x16 | x16 | x16 | x16 | x16 | x16 | x16 | x16 | x16 | %77
w: heav'n to all * * be-|||||||||||||
 x16 | x16 | x16 | x16 | x16 | x8 || x8 | x16 | x16 | x16 | x16 | x16 | x16 | x16 | x16 | x16 | %93
w: ||||||||||||||||
 x16 | x16 | x16 | x16 | x16 | x16 | x16 | x16 | x16 | x16 | x16 | x16 | x16 | x16 | x16 | x16 | %109
w: ||||||||||||||||
 x16 | x16 | x16 | (^C3 =B,) A,4 A,8 | z4"^Solo" E8 D4 | C4 F4 B,2 B,2 D4- | D2 D2 G,4 D,8 | %116
w: |||u\- * pon us.|O Lord,|let Thy mer- cy light\-|* en u- pon|
 G,4 z4 z4 A,2 A,2 | x16 | x16 | x16 | x16 | x16 | x16 | x16 | x16 | x16 | x16 | x16 |] %128
w: us, as our||||||||||||
V:6
 F4 B8 c4 | (d2 ed c2 B2) c8 | c2 c2 c8 c4 | B4 c4 G6 A2 | A8 z8 | z4 c6 c2 A2 F2 | %6
w: We praise Thee,|O * * * * God,|we ac- know- ledge|Thee to be the|Lord.|All the earth doth|
 D2 A2 B6 B2 G2 G2 | (c6 B2 A3 G) F4 | F8 F8 | z4"^Solo" B4 A4 d4 | d4 B4 c4 d4 | e12 c4 | %12
w: wor- ship Thee, the Fa- ther|e\- * * * ver-|last- ing.|To Thee all|an- gels cry a-|loud, the|
 f6 e2 d4 c4 | (B4 _A2 G2 F4) (G2 A2) | G4 z4 z8 | z16 | z16 | z8 z4"^Full" A4- | A4 A4 z4 B4- | %19
w: heav'ns and all the|Pow'rs * * * there\- *|in:|||Ho\-|* ly, ho\-|
 B4 B4 z4 B4- | B4 c2 c2 c4 (B2 c2) | (d2 c4) B2 B8 | z4"^Dec." B6 B2 G2 G2 | F4 F6 F2 G2 G2 | %24
w: * ly, ho\-|* ly, Lord God of *|Sa\- * ba oth.|Heav'n and earth are|full of the ma- jes-|
 A4 B8 A4 | G8 F4"^Can." A4 | G2 G2 G4 A6 A2 | A6 A2 A4 G4 | F4 c4 =B8 | A4"^Dec." A4 G4 G4 | %30
w: ty of Thy|glo- ry. The|glo- ri- ous com- pa-|ny of the A-|pos- tles praise|Thee. The good- ly|
 A6 A2 A4 A2 A2 | A2 G2 (G8 ^F4) | G4"^Can." G4 (G2 A2) B4 | c2 c2 f4 f4 e4 | %34
w: fel- low- ship of the|Pro- phets praise *|Thee. The no\- * ble|ar- my of Mar- tyrs|
 (e4 d4) e4"^Full" B4 | B4 e4 d4 e4 | e4 d2 d2 c4 d2 d2 | c6 B2 B8 | z4"^Solo" d4 d4 c4 | %39
w: praise * Thee. The|ho- ly Church through-|out all the world doth ac-|know- ledge Thee,|the Fa- ther|
 e4 d4 c2 B2 B4 | B4 A4 B4 d4 | d4 c4 e4 d4 | c2 B2 B8 A4 | B4"^Solo" B4 c4 d4 | e4 c4 d4 G4 | %45
w: of an in- fi- nite|ma- jes- ty, Thine|ho- nour- a- ble|true, and on- ly|Son, al- so the|Ho- ly Ghost, the|
 D6 D2 G4"^Full" e4 | d4 c4 B4 _A4 | G8- G2 G2 (=A2 Bc | ^F2 GA B4) A8 | z4 d4 (D2 =E2) (=F2 G2) | %50
w: Com- for- ter. Thou|art the King of|glo\- * ry, O * *|* * * * Christ.|Thou art * the *|
 (A2 B2) (c2 A2) F4 B4 | =E4 A2 B2 A8 | A8 z8 | z16 | z16 | z16 | z16 | z16 | z4 B4 B4 A4 | %59
w: e\- * ver\- * last- ing|Son of the Fa-|ther.||||||When Thou hadst|
 (d4 ^c2) d2 !courtesy!^c4 =c4 | =B2 A2 (A8 ^G4) | A4 z4 z4 =B2 B2 | c2 c2 c4 d2 d2 d4 | %63
w: o\- * ver- come the|sharp- ness of *|death, Thou didst|o- pen the king- dom of|
 =e4 A2 G2 F2 D2 B4 | G2 =E2 c4 d2 c2 B2 A2 | (A2 G4 F2) F2"^Full" F2 c4- | c2 c2 c2 d2 e4 d2 c2 | %67
w: heav'n, Thou didst o- pen the|king- dom of heav'n to all be-|lie\- * * vers. Thou sit\-|* test at the right hand of|
 d4 c2 B2 c4 (d2 e2) | f6 B2 (e6 d2) | c8 z4 B2 B2 | =B4 c4 d4 e4 | d8 c4 z4 | z4 c6 c2 G2 c2 | %73
w: God, in the glo- ry *|of the Fa\- *|ther, in the|glo- ry of the|Fa- ther.|We be- lieve that|
 F2 G2 _A2 A2 G6- =A2 | B2 c2 d2 B2 G6 e2 | d4 c4 =B4 B4 | c4 =B4- d4 c4 | _B4 (A2 G2) D8- | %78
w: Thou shalt come, that Thou shalt|come to be our Judge, to|be our Judge. We|there- fore pray Thee,|help Thy * ser\-|
 D12 D4 | z4 f6 =e2 d2 c2 | B2 A2 G2 F2 E2 D2 C2 (B2 | A3) G (F2 G2 _A3) (G F4) | F8 || z8 | z16 | %85
w: * vants,|whom Thou hast re-|deem- ed with Thy pre- cious blood, with|* Thy pre\- * * cious *|blood.|||
 z16 | z16 | z16 |"^Solo" B8 =B4 B2 B2 | =B4 B2 B2 c4 c4 | c4 =B4 c4 z4 | z4 c6 G2 C2 D2 | %92
w: |||O Lord, save Thy|peo- ple and bless Thine|he- ri- tage.|Go- vern them, and|
 =E2 F2 G6 A2 B2 c2 | d6 B2 G8 | A4"^Full" F6 A2 A2 A2 | f6 d2 =e8 | d4 z4 z8 | c2 c2 A2 A2 F4 D4 | %98
w: lift them up, and lift them|up for e-|ver. Day by day we|mag- ni- fy|Thee,|and we wor- ship Thy Name|
 B6 G2 c4 (B2 c2) | (d2 c4 B2) B8 |"^Dec." B,4 B8 A4 | G2 G2 c6 c2 F4 | G6 G2 (F4 G4) | z16 | %104
w: e- ver world with\- *|out * * end.|Vouch- safe, O|Lord, to keep us this|day with- out *||
 z4 z4 z4 z2 G2 | A6 G2 A8 | x16 | x16 |"^Can." F4 x12 | x16 | x16 | x2 G2 x12 | =E8 D8 | z16 | %114
w: ||||||||pon us.||
 z16 | z16 | z16 | z16 | z16 | z16 | z8"^Full" B8 | F4 B4 B4 F2 F2 | (G3 F E4) F4 B4- | %123
w: ||||||O|Lord, in Thee have I|trust\- * * ed: let|
 B2 d2 c2 B2 A2 F2 G2 A2 | B2 G2 E4 F2 F2 F4- | F2 D2 E2 F2 G6 F2 | E2 C2 F2 d2 c8 | %127
w: * me ne- ver, ne- ver be con-|founded, * con- found- ed, let|* me ne- ver be con-|found- ed, be con- found-|
 !fermata!d16 |] %128
w: ed.|
V:7
 x16 | x16 | x16 | x16 | x16 | x16 | x16 | x16 | x16 | x16 | x16 | x16 | x16 | x16 | x16 | x16 | %16
w: ||||||||||||||||
 x16 | x16 | x16 | x16 | x16 | x16 | x16 | x16 | x16 | x16 | x16 | x16 | x16 | x16 | x16 | x16 | %32
w: ||||||||||||||||
 x16 | x16 | x16 | x16 | x16 | x16 | x16 | x16 | x16 | x16 | x16 | x16 | x16 | x16 | x16 | x16 | %48
w: ||||||||||||||||
 x16 | x16 | x16 | x16 | x16 | x16 | x16 | x16 | x16 | x16 | x16 | x16 | x16 | x16 | x16 | x16 | %64
w: ||||||||||||||||
 x16 | x16 | x16 | x16 | x16 | x16 | x16 | x16 | x16 | x16 | x16 | x16 | x16 | x16 | x16 | x16 | %80
w: ||||||||||||||||
 x16 | x16 | x8 || x8 | x16 | x16 | x16 | x16 | x16 | x16 | x16 | x16 | x16 | x16 | x16 | x16 | %96
w: ||||||||||||||||
 x16 | x16 | x16 | x16 | x16 | x16 | x16 | =E2 C2 c8 B4 | A8 G6 G,2 | A,6 G,2 A,8 | D8 z8 | z16 | %108
w: |||||||sin, to keep us|this day, this|day with- out|sin.||
 F,4 F8 =E4 | D2 D2 G8 C4 | D6 D2 C4 D4 | =B,2 G,2 (G8 F4) | x16 | x16 | x16 | x16 | x16 | x16 | %118
w: O Lord, have|mer- cy u- pon|us, O Lord, have|mer- cy u\- *|||||||
 x16 | x16 | x16 | x16 | x16 | x16 | x16 | x16 | x16 | x16 |] %128
w: ||||||||||
V:8
 B,,4 B,8 A,4 | G,8 F,8 | F,2 F,2 =E,8 F,4 | B,,4 A,,4 C,6 C,2 | F,,8 z8 | z8 z4 F,4- | %6
w: We praise Thee,|O God,|we ac- know- ledge|Thee to be the|Lord.|All|
 F,2 F,2 D,2 B,,2 G,,2 D,2 E,4- | E,2 E,2 C,2 C,2 F,4 B,,4 | F,,8 B,,8 | z4"^Solo" B,,4 F,4 D,4 | %10
w: * the earth doth wor- ship Thee,|* the Fa- ther e- ver-|last- ing.|To Thee all|
 G,12 F,4 | E,4 E,4 _A,8- | A,4 F,4 B,6 _A,2 | G,4 (F,2 E,2) B,,6 B,,2 | E,4 z4 z8 | z16 | z16 | %17
w: an- gels|cry a- loud,|* the heav'ns and|all the * Pow'rs there-|in:|||
 z8 z4"^Full" F,4- | F,4 F,4 z4 B,,4- | B,,4 B,,4 z4 E,4- | E,4 E,2 E,2 F,4 G,4 | F,6 F,2 B,,8 | %22
w: Ho\-|* ly, ho\-|* ly. ho\-|* ly, Lord God of|Sa- ba- oth.|
 z8 z4"^Dec." E,4- | E,2 E,2 D,2 D,2 A,,4 B,,2 B,,2 | C,2 C,2 D,4 =E,4 F,4 | C,8 F,,4"^Can." F,4 | %26
w: Heav'n|* and earth are full of the|ma- jes- ty of Thy|glo- ry. The|
 F,2 F,2 =E,4 D,6 D,2 | A,6 G,2 F,4 =E,4 | D,4 C,4 =E,8 | A,,4"^Dec." F,4 F,4 =E,4 | %30
w: glo- ri- ous com- pa-|ny of the A-|pos- tles praise|Thee. The good- ly|
 D,6 D,2 A,4 A,2 G,2 | ^F,4 G,4 D,8 | G,,4"^Can." G,4 G,4 E,4 | _A,4 G,2 F,2 B,4 E,4 | %34
w: fel- low- ship of the|Pro- phets praise|Thee. The no- ble|ar- my of Mar- tyrs|
 B,,8 E,4"^Full" E,4 | E,4 C,4 G,4 G,4 | _A,4 D,2 D,2 F,4 B,,2 B,,2 | F,,6 F,,2 B,,8 | %38
w: praise Thee. The|ho- ly Church through-|out all the world doth ac-|know- ledge Thee,|
 z4"^Solo" B,4 B,4 A,4 | G,4 F,4 E,2 E,2 D,4 | F,6 F,2 B,,4 B,4 | B,4 A,4 G,4 F,4 | %42
w: the Fa- ther|of an in- fi- nite|ma- jes- ty, Thine|ho- nour- a- ble|
 E,4 D,4 F,6 F,2 | B,,4 z4 z8 | z16 | z8 z4"^Full" G,4 | B,4 E,4 G,4 C,4 | E,4 =B,,4 C,8 | D,16 | %49
w: true, and on- ly|Son.||Thou|art the King of|glo ry, O|Christ.|
 z4 D,4 D,4 D,4 | C,4 A,,4 B,,4 G,,4 | A,,4 F,,2 G,,2 A,,8 | D,8 z8 | z16 | z16 | z16 | z16 | z16 | %58
w: Thou art the|e- ver- last- ing|Son of the Fa-|ther.||||||
 z4 B,,4 B,,4 F,4 | D,6 D,2 A,4 A,,4 | =E,6 D,2 E,8 | A,,4 A,2 G,2 F,2 D,2 G,4 | %62
w: When Thou hadst|o- ver- come the|sharp- ness of|death, Thou didst o- pen the|
 =E,2 C,2 A,,4 =B,,4 B,,2 B,,2 | C,2 C,2 C,4 D,2 D,2 D,4 | =E,4 F,4 B,,4 B,,4 | C,8 F,,4 z4 | %66
w: king- dom of heav'n, Thou didst|o- pen the king- dom of|heav'n to all be-|lie- vers.|
 z2"^Full" C,2 F,6 F,2 G,2 A,2 | B,4 A,2 G,2 A,4 B,2 B,2 | D,6 D,2 (E,2 D,2 C,2) B,,2 | %69
w: Thou sit- test at the|right hand of God, in the|glo- ry of * * the|
 A,,8 B,,4 B,2 B,2 | _A,4 A,4 G,4 F,4 | G,8 C,4 z4 | z16 | z8 z4 G,4- | %74
w: Fa- ther, in the|glo- ry of the|Fa- ther.||We|
 G,2 G,2 D,2 G,2 C,2 D,2 E,2 C,2 | D,6 D,2 G,,8- | G,,16 | G,,4 G,4 G,4 ^F,4 | %78
w: * be- lieve that Thou shalt come to|be our Judge.||* We there- fore|
 A,4- G,4 =F,4 (=E,2 D,2) | A,,6 A,,2 B,6 A,2 | G,2 F,2 _E,2 D,2 C,2 B,,2 A,,2 G,,2 | %81
w: pray Thee, help Thy *|ser- vants, whom Thou|hast re- deem- ed with Thy pre- cious|
 F,,2 (E,2 D,2) (C,B,,) F,4 G,,4 | B,,8 || z8 | z16 | z16 | z16 | z16 |"^Solo" G,8 G,4 G,2 G,2 | %89
w: blood, with * Thy * pre- cious|blood.||||||O Lord, save Thy|
 F,4 F,2 F,2 E,4 C,4 | G,6 G,2 C,4 z4 | F,6 C,2 F,,2 G,,2 A,,2 B,,2 | C,6 D,2 (=E,2 F,2 G,2) A,2 | %93
w: peo- ple and bless Thine|he- ri- tage.|Go- vern them, and lift them|up, and lift * * them|
 B,4 B,,4 C,8 | F,,4"^Full" F,6 D,2 A,4- | A,2 F,2 B,6 G,2 A,4 | D,4 z4 z8 | %97
w: up for e-|ver. Day by day|* we mag- ni- fy|Thee,|
 z4 F,2 F,2 D,2 D,2 B,,4 | G,,4 E,6 C,2 D,2 E,2 | F,8 B,,8 | z16 | z8"^Dec." F,,4 F,4- | %102
w: and we wor- ship Thy|Name e- ver world with-|out end.||Vouch- safe,|
 F,4 =E,4 D,2 D,2 G,4- | G,2 G,2 C,4 D,6 D,2 | (C,4 D,4) =B,,2 G,,2 G,4- | G,4 F,4 =E,8 | %106
w: * O Lord, to keep|* us this day with-|out * sin, this day|* with- out|
 D,8"^Can." B,,4 B,4- | B,4 A,4 G,2 G,2 C4- | C4 F,4 G,6 G,2 | F,4 G,4 =E,2 C,2 (C4- | %110
w: sin. O Lord,|* have mer- cy u\-|* pon us, O|Lord, have mer- cy u\-|
 C4 B,4) A,8 | G,6 G,,2 A,,4 A,,2 G,,2 | A,,8 D,8 | z16 | z16 | z16 | z16 | z16 | z16 | z16 | %120
w: * * pon|us, have mer- cy u-|pon us.||||||||
 z8"^Full" B,,8 | B,,4 B,,4 E,4 E,2 D,2 | C,8 B,,4 z4 | z4 F,6 D,2 E,2 F,2 | %124
w: O|Lord, in Thee have I|trust- ed:|let me ne- ver,|
 G,2 B,2 A,2 G,2 (F,3 E, D,2 C,2) | B,,3 (A,, G,,2) F,,2 E,,2 E,,2 E,2 D,2 | C,4 B,,4 F,8 | %127
w: ne- ver be con- found\- * * *|ed, let * me ne- ver, ne- ver|be con- found-|
 !fermata!B,,16 |] %128
w: ed.|

